images/marketplace-icon-white.svg

<svg fill="none" height="200" viewBox="0 0 200 200" width="200" xmlns="http://www.w3.org/2000/svg" xmlns:xlink="http://www.w3.org/1999/xlink"><clipPath id="a"><path d="m0 0h200v200h-200z" transform="matrix(0 1 -1 0 200 .000009)"/></clipPath><g clip-path="url(#a)" fill="#fff"><path d="m91.666 91.6667h-16.6666v-16.6667h16.6666z"/><path clip-rule="evenodd" d="m166.666 54.0053c0-5.0631-2.301-9.8517-6.255-13.0145l-31.77-25.4157c-8.184-6.54759-20.308-.7205-20.308 9.7608v7.9974h-58.3336c-9.205 0-16.6667 7.462-16.6667 16.6667v66.667c0 9.205 7.4617 16.666 16.6667 16.666h58.3336v16.667h-66.667c-4.6025 0-8.3333 3.731-8.3333 8.333 0 4.603 3.7308 8.334 8.3333 8.334h66.667v7.997c0 10.482 12.124 16.309 20.308 9.761l31.77-25.416c3.954-3.162 6.255-7.951 6.255-13.014zm-58.333 12.6613c0-4.6023-3.731-8.3333-8.3336-8.3333h-33.3334c-4.6025 0-8.3333 3.731-8.3333 8.3333v33.3333c0 4.6031 3.7308 8.3331 8.3333 8.3331h33.3334c4.6026 0 8.3336-3.73 8.3336-8.3331z" fill-rule="evenodd"/></g></svg>

<svg width="200" height="200" viewBox="0 0 200 200" fill="none" xmlns="http://www.w3.org/2000/svg">
<g clip-path="url(#clip0_9814_5108)">
<path d="M91.666 91.6667L74.9994 91.6667L74.9994 75L91.666 75L91.666 91.6667Z" fill="white"/>
<path fill-rule="evenodd" clip-rule="evenodd" d="M166.666 54.0053C166.666 48.9422 164.365 44.1536 160.411 40.9908L128.641 15.5751C120.457 9.02751 108.333 14.8546 108.333 25.3359L108.333 33.3333L49.9994 33.3333C40.7944 33.3333 33.3327 40.7953 33.3327 50L33.3327 116.667C33.3327 125.872 40.7944 133.333 49.9994 133.333L108.333 133.333L108.333 150L41.666 150C37.0635 150 33.3327 153.731 33.3327 158.333C33.3327 162.936 37.0635 166.667 41.666 166.667L108.333 166.667L108.333 174.664C108.333 185.146 120.457 190.973 128.641 184.425L160.411 159.009C164.365 155.847 166.666 151.058 166.666 145.995L166.666 54.0053ZM108.333 66.6666C108.333 62.0643 104.602 58.3333 99.9994 58.3333L66.666 58.3333C62.0635 58.3333 58.3327 62.0643 58.3327 66.6666L58.3327 99.9999C58.3327 104.603 62.0635 108.333 66.666 108.333L99.9994 108.333C104.602 108.333 108.333 104.603 108.333 99.9999L108.333 66.6666Z" fill="white"/>
</g>
<defs>
<clipPath id="clip0_9814_5108">
<rect width="200" height="200" fill="white" transform="translate(200 8.74228e-06) rotate(90)"/>
</clipPath>
</defs>
</svg>
